site/static/images/icons/codescan.svg

<svg fill="none" height="32" viewBox="0 0 32 32" width="32" xmlns="http://www.w3.org/2000/svg"><g fill="#ff659d"><path d="m16.9393 9.93934c-.5857.58576-.5857 1.53556 0 2.12136l2.9394 2.9393-2.9394 2.9393c-.5857.5858-.5857 1.5356 0 2.1214.5858.5857 1.5356.5857 2.1214 0l4-4c.5857-.5858.5857-1.5356 0-2.1214l-4-3.99996c-.5858-.58579-1.5356-.58579-2.1214 0z"/><path d="m13.0607 12.0607c.5857-.5858.5857-1.5356 0-2.12136-.5858-.58579-1.5356-.58579-2.1214 0l-3.99996 3.99996c-.58579.5858-.58579 1.5356 0 2.1214l3.99996 4c.5858.5857 1.5356.5857 2.1214 0 .5857-.5858.5857-1.5356 0-2.1214l-2.9394-2.9393z"/><path clip-rule="evenodd" d="m24.4931 26.6144c-2.5858 2.1161-5.8912 3.3856-9.4931 3.3856-8.28427 0-15-6.7157-15-15 0-8.28427 6.71573-15 15-15 8.2843 0 15 6.71573 15 15 0 3.6019-1.2695 6.9073-3.3856 9.4931l4.9463 4.9462c.5857.5858.5857 1.5356 0 2.1214-.5858.5857-1.5356.5857-2.1214 0zm-21.4931-11.6144c0-6.62742 5.37258-12 12-12 6.6274 0 12 5.37258 12 12 0 3.1648-1.2251 6.0434-3.227 8.1875-.1196.0663-.2321.1503-.3337.2518-.1015.1016-.1855.2141-.2518.3337-2.1441 2.0019-5.0227 3.227-8.1875 3.227-6.62742 0-12-5.3726-12-12z" fill-rule="evenodd"/></g></svg>

<svg width="32" height="32" viewBox="0 0 32 32" fill="none" xmlns="http://www.w3.org/2000/svg">
<path d="M16.9393 9.93934C16.3536 10.5251 16.3536 11.4749 16.9393 12.0607L19.8787 15L16.9393 17.9393C16.3536 18.5251 16.3536 19.4749 16.9393 20.0607C17.5251 20.6464 18.4749 20.6464 19.0607 20.0607L23.0607 16.0607C23.6464 15.4749 23.6464 14.5251 23.0607 13.9393L19.0607 9.93934C18.4749 9.35355 17.5251 9.35355 16.9393 9.93934Z" fill="#FF659D"/>
<path d="M13.0607 12.0607C13.6464 11.4749 13.6464 10.5251 13.0607 9.93934C12.4749 9.35355 11.5251 9.35355 10.9393 9.93934L6.93934 13.9393C6.35355 14.5251 6.35355 15.4749 6.93934 16.0607L10.9393 20.0607C11.5251 20.6464 12.4749 20.6464 13.0607 20.0607C13.6464 19.4749 13.6464 18.5251 13.0607 17.9393L10.1213 15L13.0607 12.0607Z" fill="#FF659D"/>
<path fill-rule="evenodd" clip-rule="evenodd" d="M24.4931 26.6144C21.9073 28.7305 18.6019 30 15 30C6.71573 30 0 23.2843 0 15C0 6.71573 6.71573 0 15 0C23.2843 0 30 6.71573 30 15C30 18.6019 28.7305 21.9073 26.6144 24.4931L31.5607 29.4393C32.1464 30.0251 32.1464 30.9749 31.5607 31.5607C30.9749 32.1464 30.0251 32.1464 29.4393 31.5607L24.4931 26.6144ZM3 15C3 8.37258 8.37258 3 15 3C21.6274 3 27 8.37258 27 15C27 18.1648 25.7749 21.0434 23.773 23.1875C23.6534 23.2538 23.5409 23.3378 23.4393 23.4393C23.3378 23.5409 23.2538 23.6534 23.1875 23.773C21.0434 25.7749 18.1648 27 15 27C8.37258 27 3 21.6274 3 15Z" fill="#FF659D"/>
</svg>
